X: 40387
T: Tom Is Gone To The Fair
R: hornpipe
M: 4/4
K: Gmajor
B>A|G2 DG BGBd|c>BAB cdef|g>fgd ecBG|EcBA GFED|
G2 DG BGBd|c>BAB cdef|g>fec BGED|E2 G2 G2:|
|:Bd|e2 dB GBdg|fdcA GFED|EA A2 B>AGE|EcBA GFED|
G>FGA BABd|cBcd edef|g>fec BGED|E2 G2 G2:|

